X: 40606
T: Tonder Jukebox, The
R: reel
M: 4/4
K: Amixolydian
BggB ga2f-|fd (3ddd edBA-|AccA cdAc-|cAcd edcA|
BggB ga2f-|fd (3ddd edBA-|AccA cdAc-|cAAA A2AA:|
|:Aceg- gefg|fd (3ddd edBA-|AccA cdAc-|cAcd edcA|
Aceg- gefg|fd (3ddd edBA-|AccA cdAc-|cAAA A2AA:|

